apps/scalable/language/language.svg

<svg xmlns="http://www.w3.org/2000/svg" style="isolation:isolate" width="256" height="256"><defs><filter id="a" width="270.648" height="254.338" x="-7.32" y="2.95" filterUnits="userSpaceOnUse"><feGaussianBlur xmlns="http://www.w3.org/2000/svg" in="SourceGraphic" stdDeviation="4.294"/><feOffset xmlns="http://www.w3.org/2000/svg" dy="4" result="pf_100_offsetBlur"/><feFlood xmlns="http://www.w3.org/2000/svg" flood-opacity=".4"/><feComposite xmlns="http://www.w3.org/2000/svg" in2="pf_100_offsetBlur" operator="in" result="pf_100_dropShadow"/><feBlend xmlns="http://www.w3.org/2000/svg" in="SourceGraphic" in2="pf_100_dropShadow"/></filter></defs><path fill="#5884F4" d="M165.685 11.947c74.055 0 84.639 10.557 84.639 84.544v59.251c0 73.986-10.584 84.543-84.639 84.543h-75.37c-74.055 0-84.639-10.557-84.639-84.543V96.491c0-73.987 10.584-84.544 84.639-84.544h75.37z" filter="url(#a)"/><path fill="none" d="M166.444 11.95c74.406 0 85.04 10.557 85.04 84.544v59.251c0 73.986-10.634 84.543-85.04 84.543H90.719c-74.405 0-85.039-10.557-85.039-84.543V96.494c0-73.987 10.634-84.544 85.039-84.544h75.725z"/><path fill="#F7F7F7" fill-opacity=".5" d="M64.121 239.56c.55.036 1.021.098 1.581.131.435.025 1.027.011 1.468.035l-.039-7.592 26.629-24.465v-8.156l12.29-12.233v-6.115l6.144-6.117v-16.309l-8.193-8.156H87.614l-8.193-8.154H58.938l-8.195 8.154v20.389l16.443 14.34-.055 18.279-6.144 6.117v26.502l3.134 3.35zM99.904 81.267l-6.144 6.117h6.144l2.049 2.039h2.048l2.049-2.039-6.146-6.117zM177.742 109.809h-24.58l-14.338 14.271v20.388l10.241 10.194h14.339l6.145 6.116v6.116l4.097 4.077v24.465l15.556 16.365 25.688-25.567-.277-23.418 20.484-20.387h-8.194l-20.483-20.387v-8.155h-24.581l-4.097-4.078z"/><path fill="#F7F7F7" fill-opacity=".5" d="M251.484 117.964V96.493c0-9.248-.167-17.505-.603-24.875a197.93 197.93 0 0 0-.869-10.4c-.366-3.254-.812-6.298-1.352-9.147-.54-2.848-1.174-5.501-1.914-7.97-.739-2.469-1.585-4.756-2.551-6.871-.614-1.347-1.365-2.511-2.08-3.723l-2.922 2.908h-12.29l-12.29 12.233-8.193-8.155h-24.58l-12.29 12.233v10.193h12.29v-6.117h8.193v8.156l-4.098 4.076-16.385.276-6.146 5.841h-8.193v8.155l-6.146 6.117v12.23h12.29l8.195-8.154h8.193v4.078l8.192 8.155h4.098v-4.079l-8.193-8.154h8.193l8.192 8.154h10.242l-6.144-6.115 6.144-6.115h6.146l6.144 6.115h-6.144l-6.146 6.115 6.034 6.006.112 6.227h-8.193l24.581 24.465h4.095l4.097-4.076 8.193-8.157-8.193-8.154h12.291z"/><path fill="#F7F7F7" fill-opacity=".5" d="M157.259 71.073v-6.116l6.145-6.116v12.232h-6.145zM220.758 191.359v-12.784l8.194-7.604v20.388h-8.194zM136.775 11.95H90.718c-.789 0-1.348.049-2.123.051l-7.125 8.104 12.29 12.232V45.12l14.339 15.76h8.193v-8.154l12.29-12.233v-8.156l8.193-8.154V11.95zM126.533 56.802h6.146l6.145 6.116h-12.291v-6.116zM71.228 124.08h-6.145l-6.146 6.117h12.291v-6.117z"/><path fill="#F7F7F7" fill-opacity=".5" d="M16.585 30.96c-.107.152-.245.268-.35.422a39.514 39.514 0 0 0-3.267 5.848c-.965 2.115-1.811 4.402-2.551 6.871-.74 2.469-1.373 5.122-1.913 7.97-.54 2.849-.986 5.893-1.352 9.147a197.89 197.89 0 0 0-.87 10.4c-.436 7.37-.602 15.627-.602 24.875v21.471l8.193 8.154h12.29l20.485 20.389v-24.465l12.29-12.232h8.193l12.29-12.233h12.29l-6.144-6.117 12.29-14.269-12.29-12.233H67.131v16.309h-8.193l-8.195-8.155v-8.154l12.291-12.232h10.243v-8.157l-12.29-12.232H40.502v12.232H30.26L16.585 30.96zM67.131 12.515c-.429.023-1.005.008-1.429.033-3.705.217-7.189.5-10.461.863-3.272.364-6.334.808-9.199 1.344a80.758 80.758 0 0 0-7.159 1.699l7.765 7.729h20.483V12.515z"/><g opacity=".1"><path fill="#FFF" d="M5.676 126.116v29.626c0 73.986 10.584 84.543 84.639 84.543h75.37c74.055 0 84.639-10.557 84.639-84.543v-29.626H5.676z"/></g><g><defs><filter id="b" width="166" height="166" x="45" y="46" filterUnits="userSpaceOnUse"><feGaussianBlur xmlns="http://www.w3.org/2000/svg" stdDeviation="1.288"/></filter></defs><path d="M128 49c-44.135 0-80 35.865-80 80s35.865 80 80 80 80-35.865 80-80-35.865-80-80-80zm0 8c.109 0 .216.007.324.008 12.202 12.51 20.732 26.216 25.838 39.992h-52.324c5.106-13.776 13.635-27.482 25.838-39.992.108-.001.215-.008.324-.008zm-12.086 1.025C105.388 70.334 97.901 83.609 93.35 97H63.482c10.055-20.265 29.364-35.086 52.432-38.975zm24.172 0c23.068 3.889 42.377 18.71 52.432 38.975H162.65c-4.551-13.391-12.038-26.666-22.564-38.975zM60.102 105h30.882c-2.086 8.25-3.077 16.478-2.984 24.484A101.772 101.772 0 0 0 91.061 153H60.102A71.99 71.99 0 0 1 56 129a71.99 71.99 0 0 1 4.102-24zm39.158 0h57.48c2.28 8.267 3.352 16.48 3.26 24.393A94.294 94.294 0 0 1 156.695 153h-57.39A94.294 94.294 0 0 1 96 129.393c-.092-7.913.98-16.126 3.26-24.393zm65.756 0h30.882A71.99 71.99 0 0 1 200 129a71.99 71.99 0 0 1-4.102 24h-30.959A101.772 101.772 0 0 0 168 129.484c.093-8.006-.898-16.234-2.984-24.484zM63.482 161h29.92c4.493 13.371 11.881 26.574 22.502 38.973C92.84 196.081 73.536 181.262 63.482 161zm38.368 0h52.3c-5.025 13.735-13.443 27.308-25.824 39.992-.109.001-.217.008-.326.008-.109 0-.217-.007-.326-.008-12.381-12.684-20.799-26.257-25.824-39.992zm60.748 0h29.92c-10.054 20.262-29.358 35.081-52.422 38.973 10.621-12.399 18.009-25.602 22.502-38.973z" opacity=".2" filter="url(#b)"/><path fill="#FFF" fill-rule="evenodd" d="M208 127a79.837 79.837 0 0 1-6.29 31.13 80.31 80.31 0 0 1-17.15 25.43 80.31 80.31 0 0 1-25.43 17.15A79.837 79.837 0 0 1 128 207a79.837 79.837 0 0 1-31.13-6.29 80.31 80.31 0 0 1-25.43-17.15 80.31 80.31 0 0 1-17.15-25.43A79.837 79.837 0 0 1 48 127a79.837 79.837 0 0 1 6.29-31.13 80.31 80.31 0 0 1 17.15-25.43 80.31 80.31 0 0 1 25.43-17.15c9.85-4.16 20.44-6.3 31.13-6.29a79.837 79.837 0 0 1 31.13 6.29 80.31 80.31 0 0 1 25.43 17.15 80.31 80.31 0 0 1 17.15 25.43c4.16 9.85 6.3 20.44 6.29 31.13zm-152 0a71.857 71.857 0 0 1 5.66-28.01A72.244 72.244 0 0 1 77.1 76.1a72.244 72.244 0 0 1 22.89-15.44A71.857 71.857 0 0 1 128 55c9.62-.01 19.15 1.92 28.01 5.66A72.244 72.244 0 0 1 178.9 76.1a72.244 72.244 0 0 1 15.44 22.89A71.857 71.857 0 0 1 200 127c.01 9.62-1.92 19.15-5.66 28.01a72.244 72.244 0 0 1-15.44 22.89 72.244 72.244 0 0 1-22.89 15.44A71.857 71.857 0 0 1 128 199c-9.62.01-19.15-1.92-28.01-5.66A72.244 72.244 0 0 1 77.1 177.9a72.244 72.244 0 0 1-15.44-22.89A71.857 71.857 0 0 1 56 127z"/><path fill="#FFF" d="M200 151v8H56v-8h144z"/><path fill="#FFF" d="M127.18 53.83l5.64-5.66c5.73 5.7 10.92 11.92 15.52 18.57a118.34 118.34 0 0 1 10.98 19.67c2.84 6.47 5.03 13.2 6.53 20.11a95.236 95.236 0 0 1 2.16 19.92v.03l-.01.99v.03c-.08 6.73-.83 13.44-2.24 20.03-1.47 6.88-3.63 13.6-6.43 20.06-2.99 6.87-6.65 13.43-10.9 19.6-4.63 6.68-9.85 12.93-15.61 18.66l-5.64-5.68c5.41-5.38 10.32-11.25 14.67-17.53 3.96-5.74 7.36-11.85 10.14-18.24a98.184 98.184 0 0 0 5.95-18.54A94.63 94.63 0 0 0 160 127.4l.01-.96c-.02-6.13-.68-12.24-1.98-18.22a97.856 97.856 0 0 0-6.04-18.6c-2.82-6.42-6.24-12.56-10.23-18.33-4.32-6.25-9.2-12.09-14.58-17.46z"/><path fill="#FFF" d="M128.82 200.16l-5.64 5.68a133.917 133.917 0 0 1-15.61-18.66c-4.25-6.17-7.91-12.73-10.9-19.6-2.8-6.46-4.96-13.18-6.43-20.06-1.41-6.59-2.16-13.3-2.24-20.03v-.03l-.01-.99v-.03c.02-6.7.74-13.38 2.16-19.92 1.5-6.91 3.69-13.64 6.53-20.11 3.03-6.89 6.7-13.48 10.98-19.67 4.6-6.65 9.79-12.87 15.52-18.57l5.64 5.66a125.452 125.452 0 0 0-14.58 17.46c-3.99 5.77-7.41 11.91-10.23 18.33a97.856 97.856 0 0 0-6.04 18.6 87.121 87.121 0 0 0-1.98 18.22l.01.96c.08 6.2.77 12.38 2.06 18.45a98.184 98.184 0 0 0 5.95 18.54c2.78 6.39 6.18 12.5 10.14 18.24 4.35 6.28 9.26 12.15 14.67 17.53z"/><path fill="#FFF" d="M200 95v8H56v-8h144z"/></g><g opacity=".4"><linearGradient id="c" x1=".517" x2=".517" y2="1"><stop offset="0%" stop-color="#fff"/><stop offset="12.5%" stop-opacity=".098" stop-color="#fff"/><stop offset="92.5%" stop-opacity=".098"/><stop offset="100%" stop-opacity=".498"/></linearGradient><path fill="none" stroke="url(#c)" stroke-linecap="round" stroke-linejoin="round" stroke-width="4.077" d="M165.685 11.947c74.055 0 84.639 10.557 84.639 84.544v59.251c0 73.986-10.584 84.543-84.639 84.543h-75.37c-74.055 0-84.639-10.557-84.639-84.543V96.491c0-73.987 10.584-84.544 84.639-84.544h75.37z" vector-effect="non-scaling-stroke"/></g></svg>

<svg xmlns="http://www.w3.org/2000/svg" style="isolation:isolate" width="256" height="256" viewBox="0 0 256 256">
 <defs>
  <filter id="phsO6KumLTgn8A34IEGVKe1O5lh7QQrK" width="270.648" height="254.338" x="-7.32" y="2.95" filterUnits="userSpaceOnUse">
   <feGaussianBlur xmlns="http://www.w3.org/2000/svg" in="SourceGraphic" stdDeviation="4.294"/>
   <feOffset xmlns="http://www.w3.org/2000/svg" dx="0" dy="4" result="pf_100_offsetBlur"/>
   <feFlood xmlns="http://www.w3.org/2000/svg" flood-opacity=".4"/>
   <feComposite xmlns="http://www.w3.org/2000/svg" in2="pf_100_offsetBlur" operator="in" result="pf_100_dropShadow"/>
   <feBlend xmlns="http://www.w3.org/2000/svg" in="SourceGraphic" in2="pf_100_dropShadow" mode="normal"/>
  </filter>
 </defs>
 <g filter="url(#phsO6KumLTgn8A34IEGVKe1O5lh7QQrK)">
  <path fill="#5884F4" d="M 165.685 11.947 C 239.74 11.947 250.324 22.504 250.324 96.491 L 250.324 155.742 C 250.324 229.728 239.74 240.285 165.685 240.285 L 90.315 240.285 C 16.26 240.285 5.676 229.728 5.676 155.742 L 5.676 96.491 C 5.676 22.504 16.26 11.947 90.315 11.947 L 165.685 11.947 Z"/>
 </g>
 <g>
  <g>
   <path fill="none" d="M 166.444 11.95 C 240.85 11.95 251.484 22.507 251.484 96.494 L 251.484 155.745 C 251.484 229.731 240.85 240.288 166.444 240.288 L 90.719 240.288 C 16.314 240.288 5.68 229.731 5.68 155.745 L 5.68 96.494 C 5.68 22.507 16.314 11.95 90.719 11.95 L 166.444 11.95 Z"/>
   <path fill="#F7F7F7" fill-opacity=".5" d="M 64.121 239.56 C 64.671 239.596 65.142 239.658 65.702 239.691 C 66.137 239.716 66.729 239.702 67.17 239.726 L 67.131 232.134 L 93.76 207.669 L 93.76 199.513 L 106.05 187.28 L 106.05 181.165 L 112.194 175.048 L 112.194 158.739 L 104.001 150.583 L 87.614 150.583 L 79.421 142.429 L 58.938 142.429 L 50.743 150.583 L 50.743 170.972 L 67.186 185.312 L 67.131 203.591 L 60.987 209.708 L 60.987 236.21 L 64.121 239.56 Z"/>
   <path fill="#F7F7F7" fill-opacity=".5" d="M 99.904 81.267 L 93.76 87.384 L 99.904 87.384 L 101.953 89.423 L 104.001 89.423 L 106.05 87.384 L 99.904 81.267 Z"/>
   <path fill="#F7F7F7" fill-opacity=".5" d="M 177.742 109.809 L 153.162 109.809 L 138.824 124.08 L 138.824 144.468 L 149.065 154.662 L 163.404 154.662 L 169.549 160.778 L 169.549 166.894 L 173.646 170.971 L 173.646 195.436 L 189.202 211.801 L 214.89 186.234 L 214.613 162.816 L 235.097 142.429 L 226.903 142.429 L 206.42 122.042 L 206.42 113.887 L 181.839 113.887 L 177.742 109.809 Z"/>
   <path fill="#F7F7F7" fill-opacity=".5" d="M 251.484 117.964 L 251.484 96.493 C 251.484 87.245 251.317 78.988 250.881 71.618 C 250.663 67.934 250.378 64.472 250.012 61.218 C 249.646 57.964 249.2 54.92 248.66 52.071 C 248.12 49.223 247.486 46.57 246.746 44.101 C 246.007 41.632 245.161 39.345 244.195 37.23 C 243.581 35.883 242.83 34.719 242.115 33.507 L 239.193 36.415 L 226.903 36.415 L 214.613 48.648 L 206.42 40.493 L 181.84 40.493 L 169.55 52.726 L 169.55 62.919 L 181.84 62.919 L 181.84 56.802 L 190.033 56.802 L 190.033 64.958 L 185.935 69.034 L 169.55 69.31 L 163.404 75.151 L 155.211 75.151 L 155.211 83.306 L 149.065 89.423 L 149.065 101.653 L 161.355 101.653 L 169.55 93.499 L 177.743 93.499 L 177.743 97.577 L 185.935 105.732 L 190.033 105.732 L 190.033 101.653 L 181.84 93.499 L 190.033 93.499 L 198.225 101.653 L 208.467 101.653 L 202.323 95.538 L 208.467 89.423 L 214.613 89.423 L 220.757 95.538 L 214.613 95.538 L 208.467 101.653 L 214.501 107.659 L 214.613 113.886 L 206.42 113.886 L 231.001 138.351 L 235.096 138.351 L 239.193 134.275 L 247.386 126.118 L 239.193 117.964 L 251.484 117.964 Z"/>
   <path fill="#F7F7F7" fill-opacity=".5" d="M 157.259 71.073 L 157.259 64.957 L 163.404 58.841 L 163.404 71.073 L 157.259 71.073 Z"/>
   <path fill="#F7F7F7" fill-opacity=".5" d="M 220.758 191.359 L 220.758 178.575 L 228.952 170.971 L 228.952 191.359 L 220.758 191.359 Z"/>
   <path fill="#F7F7F7" fill-opacity=".5" d="M 136.775 11.95 L 90.718 11.95 C 89.929 11.95 89.37 11.999 88.595 12.001 L 81.47 20.105 L 93.76 32.337 L 93.76 45.12 L 108.099 60.88 L 116.292 60.88 L 116.292 52.726 L 128.582 40.493 L 128.582 32.337 L 136.775 24.183 L 136.775 11.95 Z"/>
   <path fill="#F7F7F7" fill-opacity=".5" d="M 126.533 56.802 L 132.679 56.802 L 138.824 62.918 L 126.533 62.918 L 126.533 56.802 Z"/>
   <path fill="#F7F7F7" fill-opacity=".5" d="M 71.228 124.08 L 65.083 124.08 L 58.937 130.197 L 71.228 130.197 L 71.228 124.08 Z"/>
   <path fill="#F7F7F7" fill-opacity=".5" d="M 16.585 30.96 C 16.478 31.112 16.34 31.228 16.235 31.382 C 15.018 33.17 13.934 35.114 12.968 37.23 C 12.003 39.345 11.157 41.632 10.417 44.101 C 9.677 46.57 9.044 49.223 8.504 52.071 C 7.964 54.92 7.518 57.964 7.152 61.218 C 6.786 64.472 6.5 67.934 6.282 71.618 C 5.846 78.988 5.68 87.245 5.68 96.493 L 5.68 117.964 L 13.873 126.118 L 26.163 126.118 L 46.648 146.507 L 46.648 122.042 L 58.938 109.81 L 67.131 109.81 L 79.421 97.577 L 91.711 97.577 L 85.567 91.46 L 97.857 77.191 L 85.567 64.958 L 67.131 64.958 L 67.131 81.267 L 58.938 81.267 L 50.743 73.112 L 50.743 64.958 L 63.034 52.726 L 73.277 52.726 L 73.277 44.569 L 60.987 32.337 L 40.502 32.337 L 40.502 44.569 L 30.26 44.569 L 16.585 30.96 Z"/>
   <path fill="#F7F7F7" fill-opacity=".5" d="M 67.131 12.515 C 66.702 12.538 66.126 12.523 65.702 12.548 C 61.997 12.765 58.513 13.048 55.241 13.411 C 51.969 13.775 48.907 14.219 46.042 14.755 C 43.483 15.234 41.136 15.818 38.883 16.454 L 46.648 24.183 L 67.131 24.183 L 67.131 12.515 Z"/>
  </g>
 </g>
 <g opacity=".1">
  <path fill="#FFFFFF" d="M 5.676 126.116 L 5.676 155.742 C 5.676 229.728 16.26 240.285 90.315 240.285 L 165.685 240.285 C 239.74 240.285 250.324 229.728 250.324 155.742 L 250.324 126.116 L 5.676 126.116 Z"/>
 </g>
 <g>
  <defs>
   <filter id="nhKSNt0WBxeBCwd8KAPgVSJhItHZvc4m" width="166" height="166" x="45" y="46" filterUnits="userSpaceOnUse">
    <feGaussianBlur xmlns="http://www.w3.org/2000/svg" stdDeviation="1.288"/>
   </filter>
  </defs>
  <g opacity=".2" filter="url(#nhKSNt0WBxeBCwd8KAPgVSJhItHZvc4m)">
   <path d="M 128 49 C 83.865 49 48 84.865 48 129 C 48 173.135 83.865 209 128 209 C 172.135 209 208 173.135 208 129 C 208 84.865 172.135 49 128 49 L 128 49 Z M 128 57 C 128.109 57 128.216 57.007 128.324 57.008 C 140.526 69.518 149.056 83.224 154.162 97 L 101.838 97 C 106.944 83.224 115.473 69.518 127.676 57.008 C 127.784 57.007 127.891 57 128 57 L 128 57 Z M 115.914 58.025 C 105.388 70.334 97.901 83.609 93.35 97 L 63.482 97 C 73.537 76.735 92.846 61.914 115.914 58.025 L 115.914 58.025 Z M 140.086 58.025 C 163.154 61.914 182.463 76.735 192.518 97 L 162.65 97 C 158.099 83.609 150.612 70.334 140.086 58.025 Z M 60.102 105 L 90.984 105 C 88.898 113.25 87.907 121.478 88 129.484 C 88.091 137.25 89.093 145.131 91.061 153 L 60.102 153 C 57.454 145.494 56 137.421 56 129 C 56 120.579 57.454 112.506 60.102 105 L 60.102 105 Z M 99.26 105 L 156.74 105 C 159.02 113.267 160.092 121.48 160 129.393 C 159.909 137.175 158.84 145.09 156.695 153 L 99.305 153 C 97.16 145.09 96.091 137.175 96 129.393 C 95.908 121.48 96.98 113.267 99.26 105 L 99.26 105 Z M 165.016 105 L 195.898 105 C 198.546 112.506 200 120.579 200 129 C 200 137.421 198.546 145.494 195.898 153 L 164.939 153 C 166.907 145.131 167.909 137.25 168 129.484 C 168.093 121.478 167.102 113.25 165.016 105 L 165.016 105 Z M 63.482 161 L 93.402 161 C 97.895 174.371 105.283 187.574 115.904 199.973 C 92.84 196.081 73.536 181.262 63.482 161 L 63.482 161 Z M 101.85 161 L 154.15 161 C 149.125 174.735 140.707 188.308 128.326 200.992 C 128.217 200.993 128.109 201 128 201 C 127.891 201 127.783 200.993 127.674 200.992 C 115.293 188.308 106.875 174.735 101.85 161 L 101.85 161 Z M 162.598 161 L 192.518 161 C 182.464 181.262 163.16 196.081 140.096 199.973 C 150.717 187.574 158.105 174.371 162.598 161 L 162.598 161 Z"/>
  </g>
  <path fill="#FFFFFF" fill-rule="evenodd" d="M 208 127 C 208.01 137.69 205.87 148.28 201.71 158.13 C 197.68 167.63 191.86 176.26 184.56 183.56 C 177.26 190.86 168.63 196.68 159.13 200.71 C 149.28 204.87 138.69 207.01 128 207 C 117.31 207.01 106.72 204.87 96.87 200.71 C 87.37 196.68 78.74 190.86 71.44 183.56 C 64.14 176.26 58.32 167.63 54.29 158.13 C 50.13 148.28 47.99 137.69 48 127 C 47.99 116.31 50.13 105.72 54.29 95.87 C 58.32 86.37 64.14 77.74 71.44 70.44 C 78.74 63.14 87.37 57.32 96.87 53.29 C 106.72 49.13 117.31 46.99 128 47 C 138.69 46.99 149.28 49.13 159.13 53.29 C 168.63 57.32 177.26 63.14 184.56 70.44 C 191.86 77.74 197.68 86.37 201.71 95.87 C 205.87 105.72 208.01 116.31 208 127 Z M 56 127 C 55.99 117.38 57.92 107.85 61.66 98.99 C 65.29 90.44 70.53 82.66 77.1 76.1 C 83.66 69.53 91.44 64.29 99.99 60.66 C 108.85 56.92 118.38 54.99 128 55 C 137.62 54.99 147.15 56.92 156.01 60.66 C 164.56 64.29 172.34 69.53 178.9 76.1 C 185.47 82.66 190.71 90.44 194.34 98.99 C 198.08 107.85 200.01 117.38 200 127 C 200 127 200 127 200 127 L 200 127 L 200 127 C 200.01 136.62 198.08 146.15 194.34 155.01 C 190.71 163.56 185.47 171.34 178.9 177.9 C 172.34 184.47 164.56 189.71 156.01 193.34 C 147.15 197.08 137.62 199.01 128 199 C 118.38 199.01 108.85 197.08 99.99 193.34 C 91.44 189.71 83.66 184.47 77.1 177.9 C 70.53 171.34 65.29 163.56 61.66 155.01 C 57.92 146.15 55.99 136.62 56 127 Z"/>
  <path fill="#FFFFFF" d="M 200 151 L 200 159 L 56 159 L 56 151 L 200 151 Z"/>
  <path fill="#FFFFFF" d="M 127.18 53.83 L 132.82 48.17 C 138.55 53.87 143.74 60.09 148.34 66.74 C 152.62 72.93 156.29 79.52 159.32 86.41 C 162.16 92.88 164.35 99.61 165.85 106.52 C 167.27 113.06 167.99 119.74 168.01 126.44 C 168.01 126.45 168.01 126.46 168.01 126.47 L 168 127.46 C 168 127.47 168 127.48 168 127.49 C 167.92 134.22 167.17 140.93 165.76 147.52 C 164.29 154.4 162.13 161.12 159.33 167.58 C 156.34 174.45 152.68 181.01 148.43 187.18 C 143.8 193.86 138.58 200.11 132.82 205.84 L 127.18 200.16 C 132.59 194.78 137.5 188.91 141.85 182.63 C 145.81 176.89 149.21 170.78 151.99 164.39 C 154.58 158.42 156.58 152.21 157.94 145.85 C 159.23 139.78 159.92 133.6 160 127.4 L 160.01 126.44 C 159.99 120.31 159.33 114.2 158.03 108.22 C 156.64 101.83 154.62 95.6 151.99 89.62 C 149.17 83.2 145.75 77.06 141.76 71.29 C 137.44 65.04 132.56 59.2 127.18 53.83 Z"/>
  <path fill="#FFFFFF" d="M 128.82 200.16 L 123.18 205.84 C 117.42 200.11 112.2 193.86 107.57 187.18 C 103.32 181.01 99.66 174.45 96.67 167.58 C 93.87 161.12 91.71 154.4 90.24 147.52 C 88.83 140.93 88.08 134.22 88 127.49 C 88 127.48 88 127.47 88 127.46 L 87.99 126.47 C 87.99 126.46 87.99 126.45 87.99 126.44 C 88.01 119.74 88.73 113.06 90.15 106.52 C 91.65 99.61 93.84 92.88 96.68 86.41 C 99.71 79.52 103.38 72.93 107.66 66.74 C 112.26 60.09 117.45 53.87 123.18 48.17 L 128.82 53.83 C 123.44 59.2 118.56 65.04 114.24 71.29 C 110.25 77.06 106.83 83.2 104.01 89.62 C 101.38 95.6 99.36 101.83 97.97 108.22 C 96.67 114.2 96.01 120.31 95.99 126.44 L 96 127.4 C 96.08 133.6 96.77 139.78 98.06 145.85 C 99.42 152.21 101.42 158.42 104.01 164.39 C 106.79 170.78 110.19 176.89 114.15 182.63 C 118.5 188.91 123.41 194.78 128.82 200.16 Z"/>
  <path fill="#FFFFFF" d="M 200 95 L 200 103 L 56 103 L 56 95 L 200 95 Z"/>
 </g>
 <g opacity=".4">
  <linearGradient id="_lgradient_10" x1=".517" x2=".517" y1="0" y2="1">
   <stop offset="0%" style="stop-color:rgb(255,255,255)"/>
   <stop offset="12.5%" stop-opacity=".098" style="stop-color:rgb(255,255,255)"/>
   <stop offset="92.5%" stop-opacity=".098" style="stop-color:rgb(0,0,0)"/>
   <stop offset="100%" stop-opacity=".498" style="stop-color:rgb(0,0,0)"/>
  </linearGradient>
  <path fill="none" stroke="url(#_lgradient_10)" stroke-linecap="round" stroke-linejoin="round" stroke-width="4.077" d="M 165.685 11.947 C 239.74 11.947 250.324 22.504 250.324 96.491 L 250.324 155.742 C 250.324 229.728 239.74 240.285 165.685 240.285 L 90.315 240.285 C 16.26 240.285 5.676 229.728 5.676 155.742 L 5.676 96.491 C 5.676 22.504 16.26 11.947 90.315 11.947 L 165.685 11.947 Z" vector-effect="non-scaling-stroke"/>
 </g>
</svg>
